15-rwd/assets/images/search.svg

<svg width="18" height="16" viewBox="0 0 18 16" fill="none" xmlns="http://www.w3.org/2000/svg">
<path fill-rule="evenodd" clip-rule="evenodd" d="M13.8942 11.0715L17.6712 14.6313C17.8399 14.8079 17.8316 15.0783 17.6524 15.2454L16.9914 15.8684C16.9027 15.9526 16.7821 16 16.6562 16C16.5303 16 16.4096 15.9526 16.3209 15.8684L12.5439 12.3085C12.4394 12.21 12.3446 12.1028 12.2606 11.9881L11.5524 11.0982C10.3806 11.9801 8.92549 12.4602 7.42595 12.4598C4.33594 12.4699 1.65084 10.461 0.960303 7.62231C0.269767 4.78365 1.75809 1.87288 4.54414 0.613257C7.3302 -0.646363 10.6704 0.0813446 12.5873 2.36555C14.5042 4.64977 14.4862 7.88086 12.5439 10.1459L13.4881 10.76C13.6356 10.849 13.7718 10.9535 13.8942 11.0715ZM2.70508 6.23017C2.70508 8.68773 4.81889 10.68 7.42641 10.68C8.67859 10.68 9.87948 10.2112 10.7649 9.37666C11.6503 8.54216 12.1477 7.41034 12.1477 6.23017C12.1477 3.77262 10.0339 1.78037 7.42641 1.78037C4.81889 1.78037 2.70508 3.77262 2.70508 6.23017Z" fill="black"/>
</svg>

<svg xmlns="http://www.w3.org/2000/svg" width="18" height="16" fill="none"><path fill="#000" fill-rule="evenodd" d="m13.894 11.072 3.777 3.56a.427.427 0 0 1-.019.613l-.66.623a.487.487 0 0 1-.336.132.487.487 0 0 1-.335-.132l-3.777-3.56a2.342 2.342 0 0 1-.283-.32l-.709-.89a6.868 6.868 0 0 1-4.126 1.362c-3.09.01-5.775-1.999-6.466-4.838-.69-2.838.798-5.75 3.584-7.009C7.33-.647 10.67.081 12.587 2.366c1.917 2.284 1.9 5.515-.043 7.78l.944.614c.148.089.284.194.406.312ZM2.705 6.23c0 2.458 2.114 4.45 4.721 4.45a4.871 4.871 0 0 0 3.339-1.303 4.324 4.324 0 0 0 1.383-3.147c0-2.457-2.114-4.45-4.722-4.45-2.607 0-4.72 1.993-4.72 4.45Z" clip-rule="evenodd"/></svg>
